src/lib/packages/icons/src/assets/filled/tiktok.svg

<svg width="24" height="24" viewBox="0 0 24 24" fill="none" xmlns="http://www.w3.org/2000/svg">
<path d="M20 10.38C18.45 10.38 16.69 9.89998 15.43 8.99998V15.28C15.43 18.44 12.8701 21 9.71005 20.99C6.55005 20.99 3.99003 18.43 4.00003 15.27C4.00003 12.11 6.56 9.54998 9.72 9.55998C9.98 9.55998 10.24 9.57999 10.5 9.60999V12.77C9.12003 12.34 7.64005 13.1 7.21005 14.49C6.78005 15.88 7.54002 17.35 8.93002 17.78C10.31 18.21 11.79 17.45 12.22 16.06C12.3 15.81 12.3401 15.54 12.3401 15.27V2.97998H15.43C15.43 3.23998 15.45 3.49998 15.5 3.75998C15.72 4.91998 16.4001 5.93999 17.4001 6.57999C18.1001 7.03999 19.17 7.28998 20.01 7.28998V10.36L20 10.38Z" fill="currentColor"/>
</svg>

<svg xmlns="http://www.w3.org/2000/svg" width="24" height="24" fill="none"><path fill="currentColor" d="M20 10.38c-1.55 0-3.31-.48-4.57-1.38v6.28c0 3.16-2.56 5.72-5.72 5.71-3.16 0-5.72-2.56-5.71-5.72 0-3.16 2.56-5.72 5.72-5.71.26 0 .52.02.78.05v3.16c-1.38-.43-2.86.33-3.29 1.72-.43 1.39.33 2.86 1.72 3.29a2.623 2.623 0 0 0 3.41-2.51V2.98h3.09c0 .26.02.52.07.78.22 1.16.9 2.18 1.9 2.82.7.46 1.77.71 2.61.71v3.07l-.01.02Z"/></svg>
